dist/svg/file-download-o.svg

<!-- Generated by Trend Micro Style Portal -->
<svg version="1.1" xmlns="http://www.w3.org/2000/svg" width="16" height="16" viewBox="0 0 16 16">
  <title>file-download-o</title>
  <path fill="rgb(34,34,34)" d="M2 1h8v4h4v6h1v-7l-4-4h-9c-0.536 0.038-0.962 0.464-1 0.997v14.003c0.038 0.537 0.464 0.962 0.997 1h8.003v-1h-8zM11 1.4l2.6 2.6h-2.6zM16.045 11.997l-4 4-4-4h3v-4h2v4z"></path>
</svg>

<svg width="17" height="16" viewBox="0 0 17 16" fill="rgb(34, 34, 34)" xmlns="http://www.w3.org/2000/svg"><title>file-download-o</title><path d="M2 1H10V5H14V11H15V4L11 0H2C1.464 0.038 1.038 0.464 1 0.997V1V15C1.038 15.537 1.464 15.962 1.997 16H2H10V15H2V1ZM11 1.4L13.6 4H11V1.4ZM16.045 11.997L12.045 15.997L8.045 11.997H11.045V7.997H13.045V11.997H16.045Z" fill="rgb(34, 34, 34)" fill-opacity="1.00"/></svg>
